illos/images/aslogo.svg

<svg width="198" height="198" viewBox="0 0 198 198" fill="none" xmlns="http://www.w3.org/2000/svg">
<path d="M79.6823 1.90219C95.6502 -1.27397 112.155 -0.463027 127.735 4.26303C143.314 8.98913 157.488 17.4847 169 28.9969C178.207 38.1796 185.508 49.0914 190.485 61.1048C195.461 73.1182 198.014 85.9966 197.997 98.9998C197.997 153.675 153.672 198 98.9968 198C82.7161 198 66.6866 193.985 52.3283 186.31C37.97 178.636 25.726 167.539 16.6809 154.002C7.63575 140.465 2.06868 124.906 0.472853 108.704C-1.12296 92.5017 1.30165 76.156 7.53193 61.1146C13.7623 46.0732 23.606 32.8004 36.1911 22.472C48.7762 12.1437 63.7145 5.07838 79.6823 1.90219ZM98.4782 101.675H120.052L95.2277 133.134V167.153C95.3119 167.052 125.786 130.447 139.576 113.871C149.427 102.019 145.244 83.6026 124.966 83.6024C123.133 83.5665 121.199 83.602 121.18 83.6024V74.0848L98.4782 101.675ZM121.18 30.8475C120.84 31.1991 81.0776 80.1489 61.3317 104.488C55.857 111.237 53.3225 118.673 53.3225 127.309C53.3225 133.826 53.384 147.204 53.384 147.727C54.0466 147.648 71.2725 129.115 71.3083 129.077H89.9484L106.443 107.921H85.2595L85.3742 107.781H85.1897L121.18 63.9891C121.18 63.8845 121.222 31.5602 121.18 30.8475Z" fill="black"/>
</svg>

<?xml version="1.0" encoding="utf-8"?>
<!-- Generator: Adobe Illustrator 25.4.1, SVG Export Plug-In . SVG Version: 6.00 Build 0)  -->
<svg version="1.1" id="Layer_1" xmlns="http://www.w3.org/2000/svg" xmlns:xlink="http://www.w3.org/1999/xlink" x="0px" y="0px"
	 viewBox="0 0 198 198" style="enable-background:new 0 0 198 198;" xml:space="preserve">
<style type="text/css">
	.st0{fill:#222222;}
</style>
<path class="st0" d="M79.7,1.9c16-3.2,32.5-2.4,48.1,2.4C143.3,9,157.5,17.5,169,29c9.2,9.2,16.5,20.1,21.5,32.1
	c5,12,7.5,24.9,7.5,37.9c0,54.7-44.3,99-99,99c-16.3,0-32.3-4-46.7-11.7C38,178.6,25.7,167.5,16.7,154c-9-13.5-14.6-29.1-16.2-45.3
	c-1.6-16.2,0.8-32.5,7.1-47.6c6.2-15,16.1-28.3,28.7-38.6C48.8,12.1,63.7,5.1,79.7,1.9z M98.5,101.7h21.6l-24.8,31.5v34
	c0.1-0.1,30.6-36.7,44.3-53.3c9.9-11.9,5.7-30.3-14.6-30.3c-1.8,0-3.8,0-3.8,0v-9.5L98.5,101.7z M121.2,30.8
	c-0.3,0.4-40.1,49.3-59.8,73.6c-5.5,6.7-8,14.2-8,22.8c0,6.5,0.1,19.9,0.1,20.4c0.7-0.1,17.9-18.6,17.9-18.7h18.6l16.5-21.2H85.3
	l0.1-0.1h-0.2l36-43.8C121.2,63.9,121.2,31.6,121.2,30.8z"/>
</svg>
